public/bimi.svg

<?xml version="1.0" encoding="UTF-8"?>
<svg id="Layer_1" data-name="Layer 1" xmlns="http://www.w3.org/2000/svg" viewBox="0 0 1094.26 1109.56">
  <defs>
    <style>
      .cls-1 {
        fill: #5cc7ab;
      }
    </style>
  </defs>
  <path class="cls-1" d="M328.58,1041.81c66.08,27.33,134.8,40.31,202.67,40.31,202.21,0,396.81-115.26,491.16-309.65,62.56-124.96,73.7-269.33,30.69-395.73-41.01-124.7-147.6-245.35-271.58-307.36-112.13-56.09-234.38-64.48-353.58-24.29-19.37,6.54-29.77,27.55-23.23,46.91,6.53,19.38,27.49,29.79,46.91,23.25,100.05-33.76,202.67-26.72,296.78,20.35,130.28,65.16,207.67,183.08,234.49,264.62,36.26,106.55,26.29,233.32-26.88,339.53-109.15,224.85-372.34,327.48-600.07,233.29C144.76,892.36,35.73,641.4,117.92,424.79c14.98-40.23,42.26-93.77,65.39-118.26,49.45-52.36,106.56-71.48,169.84-56.77.31.07.62.06.93.12,27.07,7.4,52.5,23.19,74.19,46.68-116.37,107.45-158.19,276.23-158.19,400.86,0,220.74,104.21,244.57,149.02,244.57,104.65,0,169.66-125.33,169.66-327.08,0-115.63-20.61-220.73-58.2-298.06,34.25-17.45,72.3-26.27,113.28-26.27,84.22,0,143.02,53.46,143.02,130,0,81.28-79.24,130.39-134.44,133.31-20.87,1.74-36.01,16.9-36.01,36.05,0,22.45,16.47,39.38,38.29,39.38,87.16,0,208.73-79.41,208.73-208.73,0-118.44-92.35-204.39-219.59-204.39-55.9,0-108.21,12.49-155.71,37.16-43.04-52.76-103.94-82.77-168.91-82.77-1.24,0-2.43.27-3.65.4-55.81-.78-122.75,17.65-186.08,84.73-33.62,35.59-64.61,99.41-80.87,143.04-97.98,258.21,28.03,546.86,279.96,643.07ZM511.11,624.49c-2.18,160.01-48.48,246.36-90.92,246.36-50.53,0-73.54-89.91-73.54-173.44,0-107.39,37.33-249.43,120.33-335.24,29.64,65.84,45.24,157.98,44.13,262.32Z"/>
</svg>

<svg width="1094" height="1094" viewBox="0 0 1094 1094" fill="none" xmlns="http://www.w3.org/2000/svg">
<path d="M328.58 1041.81C394.66 1069.14 463.38 1082.12 531.25 1082.12C733.46 1082.12 928.06 966.86 1022.41 772.47C1084.97 647.51 1096.11 503.14 1053.1 376.74C1012.09 252.04 905.5 131.39 781.52 69.3802C669.39 13.2902 547.14 4.9002 427.94 45.0902C408.57 51.6302 398.17 72.6402 404.71 92.0002C411.24 111.38 432.2 121.79 451.62 115.25C551.67 81.4902 654.29 88.5302 748.4 135.6C878.68 200.76 956.07 318.68 982.89 400.22C1019.15 506.77 1009.18 633.54 956.01 739.75C846.86 964.6 583.67 1067.23 355.94 973.04C144.76 892.36 35.7299 641.4 117.92 424.79C132.9 384.56 160.18 331.02 183.31 306.53C232.76 254.17 289.87 235.05 353.15 249.76C353.46 249.83 353.77 249.82 354.08 249.88C381.15 257.28 406.58 273.07 428.27 296.56C311.9 404.01 270.08 572.79 270.08 697.42C270.08 918.16 374.29 941.99 419.1 941.99C523.75 941.99 588.76 816.66 588.76 614.91C588.76 499.28 568.15 394.18 530.56 316.85C564.81 299.4 602.86 290.58 643.84 290.58C728.06 290.58 786.86 344.04 786.86 420.58C786.86 501.86 707.62 550.97 652.42 553.89C631.55 555.63 616.41 570.79 616.41 589.94C616.41 612.39 632.88 629.32 654.7 629.32C741.86 629.32 863.43 549.91 863.43 420.59C863.43 302.15 771.08 216.2 643.84 216.2C587.94 216.2 535.63 228.69 488.13 253.36C445.09 200.6 384.19 170.59 319.22 170.59C317.98 170.59 316.79 170.86 315.57 170.99C259.76 170.21 192.82 188.64 129.49 255.72C95.87 291.31 64.8799 355.13 48.6199 398.76C-49.3601 656.97 76.6499 945.62 328.58 1041.83V1041.81ZM511.11 624.49C508.93 784.5 462.63 870.85 420.19 870.85C369.66 870.85 346.65 780.94 346.65 697.41C346.65 590.02 383.98 447.98 466.98 362.17C496.62 428.01 512.22 520.15 511.11 624.49Z" fill="#5CC7AB"/>
</svg>
